img/icons/action/select-all.svg

<svg viewBox="0 0 16 16" xmlns="http://www.w3.org/2000/svg"><path d="m11.2 1h-2.4c-0.857 0-1.44 7.8e-4 -1.89 0.0376-0.438 0.0358-0.663 0.101-0.819 0.18-0.376 0.192-0.682 0.498-0.874 0.874-0.0492 0.0966-0.107 0.253-0.153 0.462-0.0543 0.249-0.261 0.446-0.516 0.446-0.282 0-0.51-0.239-0.47-0.518 0.0478-0.332 0.125-0.602 0.248-0.844 0.288-0.564 0.747-1.02 1.31-1.31 0.642-0.327 1.48-0.327 3.16-0.327h2.4c1.68 0 2.52 0 3.16 0.327 0.564 0.288 1.02 0.747 1.31 1.31 0.327 0.642 0.327 1.48 0.327 3.16v2.4c0 1.68 0 2.52-0.327 3.16-0.288 0.564-0.746 1.02-1.31 1.31-0.242 0.123-0.512 0.2-0.844 0.248-0.279 0.0401-0.518-0.188-0.518-0.47 0-0.255 0.197-0.462 0.446-0.516 0.209-0.0455 0.365-0.104 0.462-0.153 0.376-0.192 0.682-0.498 0.874-0.874 0.0797-0.156 0.145-0.381 0.18-0.819 0.0368-0.45 0.0376-1.03 0.0376-1.89v-2.4c0-0.857-8e-4 -1.44-0.0376-1.89-0.0358-0.438-0.101-0.663-0.18-0.819-0.192-0.376-0.498-0.682-0.874-0.874-0.156-0.0797-0.381-0.145-0.819-0.18-0.45-0.0368-1.03-0.0376-1.89-0.0376z" fill="#000"/><path d="m8.83 8.12c0.21 0.18 0.234 0.495 0.0542 0.705l-3 3.5c-0.0906 0.106-0.221 0.169-0.36 0.174-0.139 0.0054-0.274-0.0476-0.373-0.146l-2-2c-0.195-0.195-0.195-0.512 0-0.707 0.195-0.195 0.512-0.195 0.707 0l1.62 1.62 2.65-3.09c0.18-0.21 0.495-0.234 0.705-0.0542z" fill="#000"/><path d="m0.327 5.64c-0.327 0.642-0.327 1.48-0.327 3.16v2.4c0 1.68 0 2.52 0.327 3.16 0.288 0.564 0.747 1.02 1.31 1.31 0.642 0.327 1.48 0.327 3.16 0.327h2.4c1.68 0 2.52 0 3.16-0.327 0.564-0.288 1.02-0.746 1.31-1.31 0.327-0.642 0.327-1.48 0.327-3.16v-2.4c0-1.68 0-2.52-0.327-3.16-0.288-0.564-0.746-1.02-1.31-1.31-0.642-0.327-1.48-0.327-3.16-0.327h-2.4c-1.68 0-2.52 0-3.16 0.327-0.564 0.288-1.02 0.747-1.31 1.31zm6.87-0.638h-2.4c-0.857 0-1.44 7.8e-4 -1.89 0.0376-0.438 0.0358-0.663 0.101-0.819 0.18-0.376 0.192-0.682 0.498-0.874 0.874-0.0797 0.156-0.145 0.381-0.18 0.819-0.0368 0.45-0.0376 1.03-0.0376 1.89v2.4c0 0.857 7.8e-4 1.44 0.0376 1.89 0.0358 0.438 0.101 0.663 0.18 0.819 0.192 0.376 0.498 0.682 0.874 0.874 0.156 0.0797 0.381 0.145 0.819 0.18 0.45 0.0368 1.03 0.0376 1.89 0.0376h2.4c0.857 0 1.44-8e-4 1.89-0.0376 0.438-0.0358 0.663-0.101 0.819-0.18 0.376-0.192 0.682-0.498 0.874-0.874 0.0797-0.156 0.145-0.381 0.18-0.819 0.0368-0.45 0.0376-1.03 0.0376-1.89v-2.4c0-0.857-8e-4 -1.44-0.0376-1.89-0.0358-0.438-0.101-0.663-0.18-0.819-0.192-0.376-0.498-0.682-0.874-0.874-0.156-0.0797-0.381-0.145-0.819-0.18-0.45-0.0368-1.03-0.0376-1.89-0.0376z" clip-rule="evenodd" fill="#000" fill-rule="evenodd"/></svg>

<svg xmlns="http://www.w3.org/2000/svg" viewBox="0 0 16 16" fill="none">
  <path fill="#000"
    d="M11.2 1H8.8c-.857 0-1.439 0-1.889.038-.438.035-.663.1-.819.18a2 2 0 0 0-.874.874 1.99 1.99 0 0 0-.153.462C5.011 2.803 4.804 3 4.55 3c-.282 0-.51-.239-.47-.518a2.66 2.66 0 0 1 .248-.844A3 3 0 0 1 5.638.327C6.28 0 7.12 0 8.8 0h2.4c1.68 0 2.52 0 3.162.327a3 3 0 0 1 1.311 1.311C16 2.28 16 3.12 16 4.8v2.4c0 1.68 0 2.52-.327 3.162a3 3 0 0 1-1.311 1.311 2.65 2.65 0 0 1-.844.248.462.462 0 0 1-.518-.47c0-.255.197-.462.446-.516a1.99 1.99 0 0 0 .462-.153 2 2 0 0 0 .874-.874c.08-.156.145-.38.18-.819C15 8.639 15 8.057 15 7.2V4.8c0-.857 0-1.439-.038-1.889-.035-.438-.1-.663-.18-.819a2 2 0 0 0-.874-.874c-.156-.08-.38-.145-.819-.18C12.639 1 12.057 1 11.2 1ZM8.825 8.12a.5.5 0 0 1 .055.705l-3 3.5a.5.5 0 0 1-.734.029l-2-2a.5.5 0 0 1 .708-.708l1.618 1.619 2.648-3.09a.5.5 0 0 1 .705-.055Z" />
  <path fill="#000" fill-rule="evenodd"
    d="M.327 5.638C0 6.28 0 7.12 0 8.8v2.4c0 1.68 0 2.52.327 3.162a3 3 0 0 0 1.311 1.311C2.28 16 3.12 16 4.8 16h2.4c1.68 0 2.52 0 3.162-.327a3 3 0 0 0 1.311-1.311C12 13.72 12 12.88 12 11.2V8.8c0-1.68 0-2.52-.327-3.162a3 3 0 0 0-1.311-1.311C9.72 4 8.88 4 7.2 4H4.8c-1.68 0-2.52 0-3.162.327A3 3 0 0 0 .327 5.638ZM7.2 5H4.8c-.857 0-1.439 0-1.889.038-.438.035-.663.1-.819.18a2 2 0 0 0-.874.874c-.08.156-.145.38-.18.819C1 7.361 1 7.943 1 8.8v2.4c0 .857 0 1.439.038 1.889.035.438.1.663.18.819a2 2 0 0 0 .874.874c.156.08.38.145.819.18C3.361 15 3.943 15 4.8 15h2.4c.857 0 1.439 0 1.889-.038.438-.035.663-.1.819-.18a2 2 0 0 0 .874-.874c.08-.156.145-.38.18-.819.037-.45.038-1.032.038-1.889V8.8c0-.857 0-1.439-.038-1.889-.035-.438-.1-.663-.18-.819a2 2 0 0 0-.874-.874c-.156-.08-.38-.145-.819-.18C8.639 5 8.057 5 7.2 5Z"
    clip-rule="evenodd" />
</svg>
